X:48
T: Meghót, meghót a cigányok vajdája, vajdája
O: Józseffalva, 1932
Q: "Allegro" 1/4=176
M:2/4
L:1/4
K:C
A/B/c/B/ | A/B/c/B/ | A/A E/ | A/AA/ | 
G/A/B/A/ | G/A/B/A/ | G/GA/ | G/GG/ | 
A/B/c/B/ | G/E/G/F/ | E/EE/ | A/ED/ | 
G/A/B/A/ | G/E/G/F/ | E/EE/ | E/EE/ |

